synths/sDOT.svg

<svg width="480" height="480" viewBox="0 0 480 480" fill="none" xmlns="http://www.w3.org/2000/svg"><mask id="mask0-027456" maskUnits="userSpaceOnUse" x="0" y="0" width="480" height="480"><circle cx="240" cy="240" r="240" fill="url(#paint0_linear-595899)"/></mask><g mask="url(#mask0-027456)"><circle cx="240" cy="240" r="240" fill="#31D8A4"/><circle cx="240" cy="240" r="208" fill="#fff"/></g><circle cx="240" cy="240" r="184" fill="#0E052F"/><path d="M240 424c101.62 0 184-82.38 184-184S341.62 56 240 56 56 138.38 56 240s82.38 184 184 184z" fill="#fff"/><path d="M240.94 117.333c-51.244.206-92.734 41.696-92.94 92.94a95.45 95.45 0 004.901 30.189c2.421 6.626 9.606 10.194 16.349 8.145 6.518-2.499 9.978-9.625 7.9-16.29a61.344 61.344 0 01-3.617-23.691c1.118-37.011 32.023-66.112 69.034-64.995 37.011 1.117 66.112 32.022 64.995 69.033-1.049 34.649-28.337 62.79-62.947 64.897 0 0-13.046.794-19.534 1.588a67.449 67.449 0 00-7.107 1.412.855.855 0 01-1.215.01l-.01-.01a.854.854 0 010-1.039l2.019-11.017 12.252-55.106c1.471-6.88-2.911-13.653-9.791-15.124-6.881-1.47-13.654 2.912-15.125 9.792 0 0-29.14 134.882-29.14 136.107-1.666 6.557 2.294 13.222 8.851 14.889.069.019.147.039.216.049h.676c6.547 1.695 13.232-2.245 14.918-8.793.03-.107.059-.215.079-.333a3.088 3.088 0 010-.608c.362-1.587 4.038-19.534 4.038-19.534a33.063 33.063 0 0127.366-26.024c2.813-.431 14.634-1.225 14.634-1.225 51.047-5.087 88.304-50.596 83.207-101.644-4.646-46.558-43.216-82.403-90.009-83.618z" fill="#1E1E1E"/><path d="M246.576 331.627c-8.381-1.744-16.575 3.637-18.319 12.007-.02.079-.03.157-.049.236-1.814 8.321 3.46 16.545 11.791 18.358.01 0 .02 0 .029.01h.432c8.155 1.97 16.359-3.048 18.319-11.194.02-.058.029-.127.049-.186v-.853c1.441-8.409-3.93-16.476-12.252-18.378z" fill="#E6007A"/><defs><linearGradient id="paint0_linear-595899" x1="240" y1="0" x2="240" y2="701.818" gradientUnits="userSpaceOnUse"><stop stop-color="#08021E"/><stop offset="1" stop-color="#1F0777"/></linearGradient></defs></svg>

<svg width="480" height="480" viewBox="0 0 480 480" fill="none" xmlns="http://www.w3.org/2000/svg">
<mask id="mask0-027456" mask-type="alpha" maskUnits="userSpaceOnUse" x="0" y="0" width="480" height="480">
<circle cx="240" cy="240" r="240" fill="url(#paint0_linear-595899)"/>
</mask>
<g mask="url(#mask0-027456)">
<circle cx="240" cy="240" r="240" fill="#31D8A4"/>
<circle cx="240" cy="240" r="208" fill="white"/>
</g>
<circle cx="240" cy="240" r="184" fill="#0E052F"/>
<path d="M240 424C341.62 424 424 341.62 424 240C424 138.38 341.62 56 240 56C138.38 56 56 138.38 56 240C56 341.62 138.38 424 240 424Z" fill="white"/>
<path d="M240.94 117.333C189.696 117.539 148.206 159.029 148 210.273C148 220.535 149.656 230.729 152.901 240.462C155.322 247.088 162.507 250.656 169.25 248.607C175.768 246.108 179.228 238.982 177.15 232.317C174.396 224.73 173.171 216.683 173.533 208.626C174.651 171.615 205.556 142.514 242.567 143.631C279.578 144.748 308.679 175.653 307.562 212.664C306.513 247.313 279.225 275.454 244.615 277.561C244.615 277.561 231.569 278.355 225.081 279.149C222.689 279.492 220.317 279.963 217.974 280.561C217.641 280.904 217.102 280.904 216.759 280.571L216.749 280.561C216.514 280.257 216.514 279.826 216.749 279.522L218.768 268.505L231.02 213.399C232.491 206.519 228.109 199.746 221.229 198.275C214.348 196.805 207.575 201.187 206.104 208.067C206.104 208.067 176.964 342.949 176.964 344.174C175.298 350.731 179.258 357.396 185.815 359.063C185.884 359.082 185.962 359.102 186.031 359.112H186.707C193.254 360.807 199.939 356.867 201.625 350.319C201.655 350.212 201.684 350.104 201.704 349.986C201.684 349.78 201.684 349.574 201.704 349.378C202.066 347.791 205.742 329.844 205.742 329.844C208.526 316.298 219.445 305.918 233.108 303.82C235.921 303.389 247.742 302.595 247.742 302.595C298.789 297.508 336.046 251.999 330.949 200.951C326.303 154.393 287.733 118.548 240.94 117.333Z" fill="#1E1E1E"/>
<path d="M246.576 331.627C238.195 329.883 230.001 335.264 228.257 343.634C228.237 343.713 228.227 343.791 228.208 343.87C226.394 352.191 231.668 360.415 239.999 362.228C240.009 362.228 240.019 362.228 240.028 362.238H240.46C248.615 364.208 256.819 359.19 258.779 351.044C258.799 350.986 258.808 350.917 258.828 350.858V350.005C260.269 341.596 254.898 333.529 246.576 331.627Z" fill="#E6007A"/>
<defs>
<linearGradient id="paint0_linear-595899" x1="240" y1="0" x2="240" y2="701.818" gradientUnits="userSpaceOnUse">
<stop stop-color="#08021E"/>
<stop offset="1" stop-color="#1F0777"/>
</linearGradient>
</defs>
</svg>
